src/assets/img/resource_header.svg

<svg width="1280" height="240" viewBox="0 0 1280 240" fill="none" xmlns="http://www.w3.org/2000/svg">
<g clip-path="url(#clip0)">
<path d="M1291 23.6016C1291 23.6016 1241 78.6016 1218 101.602C1200.9 118.702 1143.8 160.702 1121 163.602C1089 167.602 1049.9 169.602 992 162.602C934.1 155.602 899 221.602 879 241.602C862.7 257.902 797 297.602 797 297.602L1291 295.602V23.6016Z" fill="#E4F2FF"/>
<path d="M0 146.501C0 146.501 49 132.501 71 142.501C93 152.501 151.2 171.601 174 174.501C206 178.501 242 158.501 279 166.501C315.2 174.301 322 207.501 342 220.501C361.4 233.101 374 268.501 374 268.501L0 266.501V146.501Z" fill="#E4F2FF"/>
<path d="M140.5 63C140.5 65 140.5 68 142.5 68C144.5 68 175.5 54 175.5 54L173.5 49L140.5 63Z" fill="#4497FF"/>
<path d="M1122.5 75.1C1118.5 76.4 1115.5 85.1 1115.5 88.1C1115.5 91.1 1108.5 96.1 1108.5 96.1L1111.5 98.1C1111.5 98.1 1104.5 107.1 1109.5 109.1C1114.5 111.1 1122.5 109.1 1122.5 113.1C1122.5 117.1 1116.5 123.1 1122.5 125.1C1128.5 127.1 1137.5 122.1 1137.5 119.1C1137.5 116.1 1134.5 110.1 1137.5 107.1C1140.5 104.1 1146.5 95.1 1146.5 91.1C1146.5 87.1 1143.5 80.1 1136.5 78.1C1129.5 76.1 1125.9 74 1122.5 75.1Z" fill="#754C24"/>
<path d="M1117.5 70.1016C1115.3 71.9016 1115.5 77.1016 1120.5 80.1016C1125.5 83.1016 1133.5 85.1016 1132.5 88.1016C1131.5 91.1016 1127.5 93.1016 1125.5 96.1016C1123.5 99.1016 1124.5 103.102 1122.5 103.102C1120.5 103.102 1113.5 98.1016 1110.5 99.1016C1109.27 99.533 1108.22 100.351 1107.5 101.434C1106.78 102.516 1106.43 103.803 1106.5 105.102C1106.5 107.102 1107.5 113.102 1109.5 113.102C1111.5 113.102 1118.8 111.002 1120.5 111.102C1122.2 111.202 1118.5 118.102 1120.5 118.102C1122.5 118.102 1127.5 119.202 1127.5 115.102C1127.5 112.102 1124.5 110.102 1124.5 107.102C1124.5 104.102 1126.5 100.102 1128.5 98.1016C1130.5 96.1016 1135 96.2016 1135.5 98.1016C1136.5 102.102 1129.5 102.102 1130.5 107.102C1131.5 112.102 1134.5 117.102 1137.5 114.102C1140.5 111.102 1150.5 100.102 1151.5 96.1016C1152.5 92.1016 1150.5 91.1016 1149.5 89.1016C1148.5 87.1016 1151.1 84.3016 1149.5 81.1016C1146.5 75.1016 1118.5 64.1016 1118.5 64.1016C1119.08 65.0544 1119.3 66.186 1119.12 67.2883C1118.94 68.3906 1118.36 69.3895 1117.5 70.1016V70.1016Z" fill="#566ED1"/>
<path d="M1143.5 119.101C1146.9 120.101 1166.5 143.101 1166.5 145.101C1166.5 147.101 1156.5 163.101 1153.5 161.101C1150.5 159.101 1148.5 155.101 1148.5 156.101C1148.5 157.101 1148.5 223.101 1145.5 222.101C1142.5 221.101 1092.5 217.101 1090.5 214.101C1088.5 211.101 1103.5 143.101 1102.5 142.101C1101.5 141.101 1091.5 139.101 1091.5 137.101C1091.5 135.101 1099.5 126.101 1103.5 125.101C1107.5 124.101 1116.2 121.501 1118.5 123.101C1121.5 125.101 1126.5 126.101 1130.5 124.101C1134.5 122.101 1135.5 119.101 1137.5 119.101C1139.5 119.101 1142.1 118.701 1143.5 119.101Z" fill="#25497A"/>
<path d="M1154.5 158.101C1154.5 160.101 1163.9 172.201 1163.5 173.101C1162.5 175.101 1146.5 201.101 1144.5 201.101C1142.5 201.101 1136.5 202.101 1136.5 205.101C1136.5 208.101 1139.5 213.101 1143.5 212.101C1147.5 211.101 1144.5 209.101 1146.5 207.101C1148.5 205.101 1182.5 177.101 1180.5 168.101C1179.4 163.101 1166.9 146.201 1164.7 146.201C1162.5 146.201 1154.5 154.201 1154.5 158.101Z" fill="#754C24"/>
<path d="M1120.7 88.6016C1120.08 89.5013 1119.38 90.3386 1118.6 91.1016Z" fill="white"/>
<path d="M1120.7 88.6016C1120.08 89.5013 1119.38 90.3386 1118.6 91.1016" stroke="black" stroke-width="2" stroke-miterlimit="10"/>
<path d="M1116.5 105.101C1114.5 105.101 1112.5 105.101 1111.5 104.101Z" fill="white"/>
<path d="M1116.5 105.101C1114.5 105.101 1112.5 105.101 1111.5 104.101" stroke="black" stroke-miterlimit="10"/>
<path d="M110.5 79.0006C114.3 79.7006 127.5 90.0006 125.5 100.001C125.3 101.101 127.4 100.101 127.5 101.001C128.5 108.001 127.5 121.301 124.5 121.001C120.4 120.601 120.1 120.601 118.5 121.001C116.3 121.601 121.5 125.001 118.5 127.001C115.5 129.001 102.9 131.101 103.5 127.001C104.1 123.301 105.5 120.001 101.5 117.001C99.2001 115.301 91.7001 110.001 90.5001 104.001C89.5001 99.0006 89.5001 88.0006 94.5001 84.0006C99.5001 80.0006 106.4 78.2006 110.5 79.0006Z" fill="#C7B299"/>
<path d="M157.5 53.0004C159.5 55.0004 154.5 61.0004 159.5 65.0004C161.7 66.8004 166.5 69.0004 167.5 73.0004C168.5 77.0004 164.5 112 162.5 114C160.5 116 143.5 133 140.5 133C137.5 133 132.5 124 133.5 122C134.5 120 154.6 107.9 155.5 105C156.4 102.1 159.5 78.0004 159.5 76.0004C159.5 74.0004 149.5 72.9004 148.5 67.0004C147.5 61.1004 149.5 56.0004 152.5 54.0004C154.4 52.8004 156.6 52.1004 157.5 53.0004Z" fill="#C7B299"/>
<path d="M71.4998 143.001C72.3998 142.601 81.4998 145.001 81.4998 146.001C81.4998 147.001 74.4998 153.001 75.4998 154.001C77.0998 155.601 89.4998 172.001 90.4998 172.001C91.4998 172.001 92.4998 171.001 93.4998 172.001C94.4998 173.001 93.4998 180.001 91.4998 180.001C89.4998 180.001 88.4998 178.001 87.4998 177.001C86.4998 176.001 64.4998 155.001 63.4998 153.001C62.4998 151.001 68.4998 144.101 71.4998 143.001Z" fill="#C7B299"/>
<path d="M106.5 90C110.5 88 115.5 94 116.5 92C117.5 90 122.3 88 123.3 85C124.5 81.4 121.5 70 118.5 70C113.5 70 115.5 74 111.5 75C106.5 76.2 105.5 71 102.5 72C99.4999 73 102.5 76 98.4999 77C94.4999 78 87.4999 76 86.4999 81C85.4999 86 90.4999 91 87.4999 93C84.4999 95 81.4999 94 82.4999 98C83.4999 102 88.4999 103 88.4999 105C88.4999 107 85.4999 113 88.4999 114C91.4999 115 96.9999 113.1 97.6999 114.1C98.3999 115.1 101.5 111 100.5 109C99.4999 107 95.6999 102.6 97.4999 100C99.4999 97 105.5 99 106.5 100C107.5 101 102 92.2 106.5 90Z" fill="#25497A"/>
<path d="M179.5 48C179.5 49 175.5 54 175.5 54L173.5 49L179.5 48Z" fill="#25497A"/>
<path d="M101.5 103.001C102.5 103.001 103.5 105.001 103.5 105.001Z" fill="white"/>
<path d="M101.5 103.001C102.5 103.001 103.5 105.001 103.5 105.001" stroke="black" stroke-miterlimit="10"/>
<path d="M125.5 112.001C124.5 113.001 118.5 113.001 118.5 113.001Z" fill="white"/>
<path d="M125.5 112.001C124.5 113.001 118.5 113.001 118.5 113.001" stroke="black" stroke-miterlimit="10"/>
<path d="M1106.5 106.801C1107.4 106.201 1107.5 114.101 1108.5 114.101C1110.7 114.101 1121.5 107.101 1122.5 108.101C1123.5 109.101 1124.5 113.101 1123.5 115.101C1122.5 117.101 1122.5 120.101 1118.5 121.101C1114.5 122.101 1111.5 120.101 1110.5 123.101C1109.8 125.201 1100.1 168.501 1097.5 176.101C1095.5 182.101 1088.5 182.101 1084.5 177.101C1080.5 172.101 1080.5 161.101 1082.5 157.101C1084.7 152.601 1103.5 120.101 1104.5 119.101C1105.5 118.101 1104.5 108.101 1106.5 106.801Z" fill="#754C24"/>
<path d="M1092.5 214.101C1092.5 215.101 1086.5 276.101 1092.5 276.101C1098.5 276.101 1119.5 279.101 1119.5 276.101C1119.5 273.101 1118.5 236.101 1119.5 237.101C1120.5 238.101 1119.5 276.101 1122.5 276.101C1125.5 276.101 1143.5 279.101 1145.5 277.101C1147.5 275.101 1146.5 221.101 1143.5 220.101C1140.5 219.101 1092.5 209.101 1092.5 214.101Z" fill="#B7DFE6"/>
<path d="M91.4998 201.001C87.4998 202.301 81.4998 269.001 85.4998 269.001C89.4998 269.001 102.5 269.001 103.5 268.001C104.5 267.001 109.5 233.001 112.5 232.001C115.5 231.001 121.5 273.001 124.5 272.001C127.5 271.001 137.5 270.001 138.5 268.001C139.5 266.001 134.5 206.001 131.5 203.001C127.5 199.001 97.4998 199.001 91.4998 201.001Z" fill="#25497A"/>
<path d="M100.1 125.901C101.4 126.401 109.1 129.101 111.3 129.101C114.3 129.101 119.4 125.001 121.4 124.001C123.4 123.001 132.4 119.001 134.4 119.001C136.4 119.001 142.4 132.001 141.4 134.001C140.4 136.001 129.4 140.001 129.4 142.001C129.4 142.601 133.5 153.101 131.1 160.001C124.4 179.701 133.5 202.501 131.4 204.001C128.4 206.001 91.3996 207.001 89.3996 205.001C88.1996 203.801 93.5996 192.301 93.5996 175.101C93.5996 164.901 90.6996 145.101 89.8996 145.101C87.8996 145.101 79.4996 151.501 77.4996 150.501C75.4996 149.501 69.0996 148.301 68.0996 145.301C67.0996 142.301 74.3996 138.001 79.4996 134.601C85.6996 130.601 95.0996 123.901 100.1 125.901Z" fill="#FF6D6D"/>
<path d="M1096.7 77.2012L1014.7 76.2012L1007.2 41.7012L1103.7 40.2012L1096.7 77.2012Z" stroke="#B7DFE6" stroke-width="3" stroke-miterlimit="10"/>
<path d="M1045.2 65.7012H1024.2L1019.2 50.7012L1045.2 51.7012V65.7012Z" stroke="#B7DFE6" stroke-width="3" stroke-miterlimit="10"/>
<path d="M1090.2 65.7012H1053.2L1052.2 50.7012L1093.2 48.7012L1090.2 65.7012Z" stroke="#B7DFE6" stroke-width="3" stroke-miterlimit="10"/>
<path d="M1194.5 213.201L1216.5 224.201" stroke="#B7DFE6" stroke-width="3" stroke-miterlimit="10"/>
<path d="M1219.4 95.6016L1214.4 132.602" stroke="#FF6D6D" stroke-width="6" stroke-miterlimit="10"/>
<path d="M1246.3 103.9L1238.8 133.4" stroke="#FF6D6D" stroke-width="4" stroke-miterlimit="10"/>
<path d="M46.4004 158.701L50.2004 195.701" stroke="#4497FF" stroke-width="7" stroke-miterlimit="10"/>
<path d="M25 177.501L30.7 207.001" stroke="#4497FF" stroke-width="4" stroke-miterlimit="10"/>
<path d="M33 215.501H29V219.501H33V215.501Z" fill="#4497FF"/>
<path d="M54.5996 206.201H47.5996V212.201H54.5996V206.201Z" fill="#4497FF"/>
<path d="M1210.21 142.748L1209.54 147.703L1215.49 148.507L1216.16 143.552L1210.21 142.748Z" fill="#FF6D6D"/>
<path d="M1234.83 141.151L1233.84 145.027L1238.59 146.234L1239.58 142.358L1234.83 141.151Z" fill="#FF6D6D"/>
<path d="M182 46.5003C182 46.5003 191.8 12.5003 207.5 19.5003C223.2 26.5003 200.7 80.5003 209.7 81.5003C218.7 82.5003 225.5 48.5003 232.2 52.5003C238.9 56.5003 233.7 76.5003 236.7 76.5003C239.7 76.5003 243.5 65.5003 244.9 65.5003" stroke="#4497FF" stroke-width="5" stroke-miterlimit="10"/>
<path d="M1162.8 56.0012L1205.1 58.7012V23.7012L1161.5 17.7012L1162.8 56.0012Z" fill="#E4F2FF" stroke="#E4F2FF" stroke-width="9" stroke-miterlimit="10"/>
<path d="M1177.7 77.4016L1226.4 74.1016L1229.6 31.9016L1173.6 27.1016L1177.7 77.4016Z" stroke="#4497FF" stroke-width="6" stroke-miterlimit="10"/>
<path d="M35.3996 8.30078L73.7996 51.3008L14.5996 31.7008L35.3996 8.30078Z" fill="#E4F2FF" stroke="#E4F2FF" stroke-width="5" stroke-miterlimit="10"/>
<path d="M35.4996 24.5L74.3996 65.3L23.5996 48.8L35.4996 24.5Z" stroke="#566ED1" stroke-width="5" stroke-miterlimit="10"/>
<path d="M9 58.8008L70.4 93.6008" stroke="#E4F2FF" stroke-width="5" stroke-miterlimit="10"/>
<path d="M18.5 76.5C19.5 76.8 65.3 84.2 65.3 84.2" stroke="#566ED1" stroke-width="5" stroke-miterlimit="10"/>
<path d="M1264.7 180.501L1207.4 186.801L1264.5 211.901L1264.7 180.501Z" fill="#B7DFE6" stroke="#B7DFE6" stroke-width="5" stroke-miterlimit="10"/>
<path d="M1253.8 192.501L1197.5 196.701L1246.3 218.601L1253.8 192.501Z" stroke="#566ED1" stroke-width="5" stroke-miterlimit="10"/>
<path d="M120.667 102.571C121.104 102.507 121.342 101.657 121.198 100.674C121.053 99.6903 120.582 98.9449 120.145 99.009C119.708 99.073 119.47 99.9224 119.615 100.906C119.759 101.89 120.23 102.635 120.667 102.571Z" fill="white" stroke="#42210B" stroke-width="2" stroke-miterlimit="10"/>
</g>
<defs>
<clipPath id="clip0">
<rect width="1280" height="240" fill="white"/>
</clipPath>
</defs>
</svg>

<?xml version="1.0" encoding="utf-8"?>
<!-- Generator: Adobe Illustrator 23.0.4, SVG Export Plug-In . SVG Version: 6.00 Build 0)  -->
<svg version="1.1" id="Layer_1" xmlns="http://www.w3.org/2000/svg" xmlns:xlink="http://www.w3.org/1999/xlink" x="0px" y="0px"
	 viewBox="0 0 1280 240" style="enable-background:new 0 0 1280 240;" xml:space="preserve">
<style type="text/css">
	.st0{clip-path:url(#SVGID_2_);}
	.st1{fill:none;stroke:#4497FF;stroke-width:4;stroke-miterlimit:10;}
	.st2{fill:#E4F2FF;}
	.st3{fill:#754C24;}
	.st4{fill:#566ED1;}
	.st5{fill:#25497A;}
	.st6{fill:#FFFFFF;stroke:#000000;stroke-width:2;stroke-miterlimit:10;}
	.st7{fill:#FFFFFF;stroke:#000000;stroke-miterlimit:10;}
	.st8{fill:#4497FF;}
	.st9{fill:#C7B299;}
	.st10{fill:#B7DFE6;}
	.st11{fill:#FF6D6D;}
	.st12{fill:#B7DFE6;stroke:#B7DFE6;stroke-width:9;stroke-miterlimit:10;}
	.st13{fill:none;stroke:#FF6D6D;stroke-width:6;stroke-miterlimit:10;}
	.st14{fill:none;stroke:#B7DFE6;stroke-width:3;stroke-miterlimit:10;}
	.st15{fill:none;stroke:#566ED1;stroke-width:3;stroke-miterlimit:10;}
	.st16{fill:none;stroke:#4497FF;stroke-width:3;stroke-miterlimit:10;}
	.st17{fill:none;stroke:#FF6D6D;stroke-width:4;stroke-miterlimit:10;}
	.st18{fill:none;stroke:#4497FF;stroke-width:7;stroke-miterlimit:10;}
	.st19{fill:none;stroke:#FF6D6D;stroke-width:3;stroke-miterlimit:10;}
	.st20{fill:#E4F2FF;stroke:#E4F2FF;stroke-width:9;stroke-miterlimit:10;}
	.st21{fill:none;stroke:#4497FF;stroke-width:6;stroke-miterlimit:10;}
	.st22{fill:#E4F2FF;stroke:#E4F2FF;stroke-width:5;stroke-miterlimit:10;}
	.st23{fill:none;stroke:#566ED1;stroke-width:5;stroke-miterlimit:10;}
	.st24{fill:none;stroke:#E4F2FF;stroke-width:5;stroke-miterlimit:10;}
	.st25{fill:#B7DFE6;stroke:#B7DFE6;stroke-width:5;stroke-miterlimit:10;}
	.st26{fill:#FFFFFF;stroke:#42210B;stroke-width:2;stroke-miterlimit:10;}
</style>
<title>resources-01</title>
<g>
	<defs>
		<rect id="SVGID_1_" width="1280" height="240"/>
	</defs>
	<clipPath id="SVGID_2_">
		<use xlink:href="#SVGID_1_"  style="overflow:visible;"/>
	</clipPath>
	<g class="st0">
		<path class="st1" d="M173.1,51.9c0,0-3.7-18.6,5.1-18.8s11.5,31,15.9,29.4c4.3-1.6-0.7-19.5,3.3-19.1c4,0.4,6.4,11.2,7.8,10.6
			s0.5-6.9,1.1-7.2"/>
		<path class="st2" d="M1291,23.6c0,0-50,55-73,78c-17.1,17.1-74.2,59.1-97,62c-32,4-71.1,6-129-1s-93,59-113,79
			c-16.3,16.3-82,56-82,56l494-2V23.6z"/>
		<path class="st2" d="M0,146.5c0,0,49-14,71-4s80.2,29.1,103,32c32,4,68-16,105-8c36.2,7.8,43,41,63,54c19.4,12.6,32,48,32,48
			l-374-2V146.5z"/>
		<path class="st3" d="M1122.5,75.1c-4,1.3-7,10-7,13s-7,8-7,8l3,2c0,0-7,9-2,11s13,0,13,4s-6,10,0,12s15-3,15-6s-3-9,0-12
			s9-12,9-16s-3-11-10-13S1125.9,74,1122.5,75.1z"/>
		<path class="st4" d="M1117.5,70.1c-2.2,1.8-2,7,3,10s13,5,12,8s-5,5-7,8s-1,7-3,7s-9-5-12-4c-2.5,0.9-4.2,3.3-4,6c0,2,1,8,3,8
			s9.3-2.1,11-2s-2,7,0,7s7,1.1,7-3c0-3-3-5-3-8s2-7,4-9s6.5-1.9,7,0c1,4-6,4-5,9s4,10,7,7s13-14,14-18s-1-5-2-7s1.6-4.8,0-8
			c-3-6-31-17-31-17C1119.7,66.1,1119.3,68.6,1117.5,70.1z"/>
		<path class="st5" d="M1143.5,119.1c3.4,1,23,24,23,26s-10,18-13,16s-5-6-5-5s0,67-3,66s-53-5-55-8s13-71,12-72s-11-3-11-5
			s8-11,12-12s12.7-3.6,15-2c3,2,8,3,12,1s5-5,7-5S1142.1,118.7,1143.5,119.1z"/>
		<path class="st3" d="M1154.5,158.1c0,2,9.4,14.1,9,15c-1,2-17,28-19,28s-8,1-8,4s3,8,7,7s1-3,3-5s36-30,34-39
			c-1.1-5-13.6-21.9-15.8-21.9S1154.5,154.2,1154.5,158.1z"/>
		<path class="st6" d="M1120.7,88.6c-0.6,0.9-1.3,1.7-2.1,2.5"/>
		<path class="st7" d="M1116.5,105.1c-2,0-4,0-5-1"/>
		<path class="st8" d="M135.5,66c0,2,0,5,2,5s33-14,33-14l-2-5L135.5,66z"/>
		<path class="st9" d="M110.5,79c3.8,0.7,17,11,15,21c-0.2,1.1,1.9,0.1,2,1c1,7,0,20.3-3,20c-4.1-0.4-4.4-0.4-6,0c-2.2,0.6,3,4,0,6
			s-15.6,4.1-15,0c0.6-3.7,2-7-2-10c-2.3-1.7-9.8-7-11-13c-1-5-1-16,4-20S106.4,78.2,110.5,79z"/>
		<path class="st9" d="M157.5,53c2,2-3,8,2,12c2.2,1.8,7,4,8,8s-3,39-5,41s-19,19-22,19s-8-9-7-11s21.1-14.1,22-17s4-27,4-29
			s-10-3.1-11-9s1-11,4-13C154.4,52.8,156.6,52.1,157.5,53z"/>
		<path class="st9" d="M71.5,143c0.9-0.4,10,2,10,3s-7,7-6,8c1.6,1.6,14,18,15,18s2-1,3,0s0,8-2,8s-3-2-4-3s-23-22-24-24
			S68.5,144.1,71.5,143z"/>
		<path class="st5" d="M106.5,90c4-2,9,4,10,2s5.8-4,6.8-7c1.2-3.6-1.8-15-4.8-15c-5,0-3,4-7,5c-5,1.2-6-4-9-3s0,4-4,5s-11-1-12,4
			s4,10,1,12s-6,1-5,5s6,5,6,7s-3,8,0,9s8.5-0.9,9.2,0.1s3.8-3.1,2.8-5.1s-4.8-6.4-3-9c2-3,8-1,9,0S102,92.2,106.5,90z"/>
		<path class="st7" d="M101.5,103c1,0,2,2,2,2"/>
		<path class="st7" d="M125.5,112c-1,1-7,1-7,1"/>
		<path class="st3" d="M1106.5,106.8c0.9-0.6,1,7.3,2,7.3c2.2,0,13-7,14-6s2,5,1,7s-1,5-5,6s-7-1-8,2c-0.7,2.1-10.4,45.4-13,53
			c-2,6-9,6-13,1s-4-16-2-20c2.2-4.5,21-37,22-38S1104.5,108.1,1106.5,106.8z"/>
		<path class="st10" d="M1092.5,214.1c0,1-6,62,0,62s27,3,27,0s-1-40,0-39s0,39,3,39s21,3,23,1s1-56-2-57S1092.5,209.1,1092.5,214.1
			z"/>
		<path class="st5" d="M91.5,201c-4,1.3-10,68-6,68s17,0,18-1s6-35,9-36s9,41,12,40s13-2,14-4s-4-62-7-65
			C127.5,199,97.5,199,91.5,201z"/>
		<path class="st11" d="M100.1,125.9c1.3,0.5,9,3.2,11.2,3.2c3,0,8.1-4.1,10.1-5.1s11-5,13-5s8,13,7,15s-12,6-12,8
			c0,0.6,4.1,11.1,1.7,18c-6.7,19.7,2.4,42.5,0.3,44c-3,2-40,3-42,1c-1.2-1.2,4.2-12.7,4.2-29.9c0-10.2-2.9-30-3.7-30
			c-2,0-10.4,6.4-12.4,5.4s-8.4-2.2-9.4-5.2s6.3-7.3,11.4-10.7C85.7,130.6,95.1,123.9,100.1,125.9z"/>
		<path class="st5" d="M174.5,51c0,1-4,6-4,6l-2-5L174.5,51z"/>
		<polygon class="st12" points="231.5,192 167.5,196 167.5,143 233.5,134 		"/>
		<polygon class="st13" points="255.5,224 195.5,220 191.5,168 260.5,162 		"/>
		<polygon class="st14" points="1115.3,52.2 1066.2,51.2 1061.7,16.8 1119.5,15.3 		"/>
		<polygon class="st14" points="1107.1,40.7 1072.9,40.7 1072,25.8 1109.8,23.8 		"/>
		<line class="st15" x1="1009.8" y1="123.2" x2="1076.8" y2="118.2"/>
		<line class="st15" x1="1014.8" y1="129.2" x2="1085.8" y2="127.2"/>
		<line class="st16" x1="995.5" y1="183.1" x2="1037.5" y2="169.1"/>
		<line class="st16" x1="1004.5" y1="187.1" x2="1033.5" y2="180.1"/>
		<line class="st14" x1="1194.5" y1="213.2" x2="1216.5" y2="224.2"/>
		<line class="st13" x1="1219.4" y1="95.6" x2="1214.4" y2="132.6"/>
		<line class="st17" x1="1246.3" y1="103.9" x2="1238.8" y2="133.4"/>
		<line class="st18" x1="46.4" y1="158.7" x2="50.2" y2="195.7"/>
		<line class="st1" x1="25" y1="177.5" x2="30.7" y2="207"/>
		
			<ellipse transform="matrix(0.9674 -0.2531 0.2531 0.9674 -12.5322 263.6325)" class="st19" cx="1018.5" cy="180.5" rx="49" ry="20.5"/>
		<rect x="29" y="215.5" class="st8" width="4" height="4"/>
		<rect x="47.6" y="206.2" class="st8" width="7" height="6"/>
		<rect x="1210.4" y="142.6" transform="matrix(0.134 -0.991 0.991 0.134 906.0326 1328.0311)" class="st11" width="5" height="6"/>
		
			<rect x="1234.7" y="141.2" transform="matrix(0.2463 -0.9692 0.9692 0.2463 792.8171 1306.9037)" class="st11" width="4" height="4.9"/>
		<polygon class="st20" points="1162.8,56 1205.1,58.7 1205.1,23.7 1161.5,17.7 		"/>
		<polygon class="st21" points="1177.7,77.4 1226.4,74.1 1229.6,31.9 1173.6,27.1 		"/>
		<polygon class="st22" points="35.4,8.3 73.8,51.3 14.6,31.7 		"/>
		<polygon class="st23" points="35.5,24.5 74.4,65.3 23.6,48.8 		"/>
		<line class="st24" x1="9" y1="58.8" x2="70.4" y2="93.6"/>
		<path class="st23" d="M18.5,76.5c1,0.3,46.8,7.7,46.8,7.7"/>
		<polygon class="st25" points="1264.7,180.5 1207.4,186.8 1264.5,211.9 		"/>
		<polygon class="st23" points="1253.8,192.5 1197.5,196.7 1246.3,218.6 		"/>
		
			<ellipse transform="matrix(0.9894 -0.145 0.145 0.9894 -13.3458 18.5304)" class="st26" cx="120.4" cy="100.8" rx="0.8" ry="1.8"/>
	</g>
</g>
</svg>
